packages/crayons-icon/icons/spam.svg

<?xml version="1.0" encoding="UTF-8"?>
<svg width="16px" height="16px" viewBox="0 0 16 16" version="1.1" xmlns="http://www.w3.org/2000/svg" xmlns:xlink="http://www.w3.org/1999/xlink">
    <!-- Generator: Sketch 52.6 (67491) - http://www.bohemiancoding.com/sketch -->
    <title>icon/spam</title>
    <desc>Created with Sketch.</desc>
    <g id="Icons-✅" stroke="none" stroke-width="1" fill="none" fill-rule="evenodd">
        <g id="Icons" transform="translate(-244.000000, -1200.000000)" fill="currentColor">
            <g id="icon/spam" transform="translate(244.000000, 1200.000000)">
                <g id="spam">
                    <path d="M13.75,2.45 C13.7268657,2.40775456 13.700098,2.36760302 13.67,2.33 C13.632397,2.29990203 13.5922454,2.27313434 13.55,2.25 C10.3892511,-0.613900872 5.53751325,-0.494445308 2.52153397,2.52153397 C-0.494445308,5.53751325 -0.613900872,10.3892511 2.25,13.55 C2.27313434,13.5922454 2.29990203,13.632397 2.33,13.67 C2.36760302,13.700098 2.40775456,13.7268657 2.45,13.75 C5.61074893,16.6139009 10.4624868,16.4944453 13.478466,13.478466 C16.4944453,10.4624868 16.6139009,5.61074893 13.75,2.45 Z M8,1.4 C9.50835962,1.39714515 10.9711951,1.91655776 12.14,2.87 L2.87,12.14 C1.91655776,10.9711951 1.39714515,9.50835962 1.4,8 C1.40550688,4.35720411 4.35720411,1.40550688 8,1.4 Z M8,14.6 C6.49164038,14.6028549 5.02880486,14.0834422 3.86,13.13 L13.13,3.86 C14.0834422,5.02880486 14.6028549,6.49164038 14.6,8 C14.5944931,11.6427959 11.6427959,14.5944931 8,14.6 Z" id="Shape"></path>
                </g>
            </g>
        </g>
    </g>
</svg>

<svg viewBox="0 0 16 16"><path d="M13.75 2.45a.83.83 0 0 0-.08-.12.83.83 0 0 0-.12-.08 8 8 0 0 0-11.3 11.3.83.83 0 0 0 .08.12.83.83 0 0 0 .12.08 8 8 0 0 0 11.3-11.3zM8 1.4a6.53 6.53 0 0 1 4.14 1.47l-9.27 9.27A6.53 6.53 0 0 1 1.4 8 6.61 6.61 0 0 1 8 1.4zm0 13.2a6.53 6.53 0 0 1-4.14-1.47l9.27-9.27A6.53 6.53 0 0 1 14.6 8 6.61 6.61 0 0 1 8 14.6z" fill="currentColor" fill-rule="evenodd"/></svg>
